libs/ui/packages/crypto-icons/src/svg/PAC.svg

<svg width="24" height="24" viewBox="0 0 24 24" fill="none">
<path d="M11.9981 3C7.02748 3.00075 3 7.03125 3 12.0019C3.00075 16.9718 7.03125 21.0008 12.0019 21C16.9718 20.9985 21.0008 16.9688 21 11.9981C20.9998 10.8162 20.7668 9.64591 20.3143 8.55405C19.8618 7.46219 19.1987 6.47016 18.3627 5.6346C17.5268 4.79903 16.5345 4.13631 15.4425 3.68426C14.3504 3.23222 13.18 2.9997 11.9981 3ZM8.34383 6.94304C8.34443 6.91857 8.35466 6.89534 8.37232 6.87839C8.38997 6.86144 8.41361 6.85216 8.43807 6.85257H12.1874C12.9739 6.83783 13.7537 6.99962 14.4695 7.32603C14.6052 7.39238 14.7386 7.46626 14.8676 7.54618L12.4271 8.9432H11.1537C11.1415 8.9435 11.1295 8.94619 11.1184 8.95112C11.1073 8.95606 11.0972 8.96314 11.0888 8.97196C11.0804 8.98078 11.0738 8.99117 11.0694 9.00254C11.065 9.0139 11.0629 9.02602 11.0632 9.0382V9.74086L8.34383 11.3135V6.94304ZM7.33432 14.8427L5.70433 13.1961L11.0723 10.099V12.1059C11.0729 12.1304 11.0831 12.1536 11.1008 12.1706C11.1184 12.1875 11.1421 12.1968 11.1665 12.1964H11.9333L7.3396 14.8427H7.33432ZM15.3727 13.3122C14.5856 13.9696 13.5052 14.2983 12.1316 14.2983H11.1537C11.1291 14.2983 11.1055 14.3081 11.0881 14.3255C11.0708 14.3429 11.061 14.3665 11.061 14.3911V16.4176L9.69638 17.2032L8.42224 17.9398L8.34157 17.985V14.6263L12.5658 12.1956C12.9269 12.1846 13.2727 12.0478 13.5437 11.8089C13.6399 11.7134 13.7208 11.6035 13.7834 11.4832L16.481 9.9218C16.5262 10.1691 16.5488 10.4194 16.5481 10.6712C16.5511 11.7742 16.159 12.654 15.3719 13.3122H15.3727ZM13.9252 11.0361C13.9432 10.9208 13.9523 10.8031 13.953 10.6863C13.9758 10.2271 13.8242 9.77629 13.5286 9.42421C13.3629 9.24034 13.1506 9.10463 12.9141 9.03141L16.6634 6.86689L18.3085 8.51271L13.9252 11.0361Z" fill="#F5EB16"/>
</svg>

<svg width="24" height="24" viewBox="0 0 24 24" fill="none"><path fill="#f5eb16" d="M11.998 3a9 9 0 1 0 .004 18 9 9 0 0 0-.004-18M8.344 6.943a.093.093 0 0 1 .094-.09h3.75a5.3 5.3 0 0 1 2.281.473q.205.1.399.22l-2.44 1.397h-1.274a.093.093 0 0 0-.09.095v.703l-2.72 1.572zm-1.01 7.9-1.63-1.647 5.368-3.097v2.007a.093.093 0 0 0 .095.09h.766L7.34 14.843zm8.039-1.53q-1.181.985-3.241.985h-.978a.093.093 0 0 0-.093.093v2.027l-1.365.785-1.274.737-.08.045v-3.359l4.224-2.43a1.55 1.55 0 0 0 .978-.387q.145-.144.24-.326l2.697-1.561a4 4 0 0 1 .067.75q.004 1.653-1.176 2.64m-1.448-2.277q.027-.173.028-.35a1.82 1.82 0 0 0-.424-1.262 1.4 1.4 0 0 0-.615-.393l3.75-2.164 1.644 1.646z"/></svg>
